src/qt/ktv/res/img/ic-check-cold-staking-off.svg

<?xml version="1.0" encoding="UTF-8"?>
<svg id="Layer_1" data-name="Layer 1" xmlns="http://www.w3.org/2000/svg" viewBox="0 0 24 24">
  <defs>
    <style>
      .cls-1 {
        fill: #cea446;
      }
    </style>
  </defs>
  <path id="ic-check-cold-staking-off" class="cls-1" d="m21.4,16.3l-2.8-1.5,2.5-.6c.5-.1.7-.6.6-1s-.6-.7-1-.6l-4.2,1.1-2.7-1.5,2.7-1.5,4.2,1.1h.2c.4,0,.7-.2.8-.6.1-.4-.1-.9-.6-1l-2.5-.6,2.8-1.5c.4-.2.5-.7.3-1.1s-.8-.5-1.2-.3l-2.7,1.3.7-2.4c.1-.4-.1-.9-.6-1s-.9.1-1,.6l-1.1,4-2.7,1.5v-3l2.9-2.9c.3-.3.3-.8,0-1.2-.3-.3-.9-.3-1.2,0l-1.8,1.8v-3.1c0-.5-.4-.8-.9-.8s-.9.4-.9.8v3.1l-1.8-1.8c-.4-.3-.9-.3-1.2,0s-.3.8,0,1.2l3.1,2.9v3l-2.8-1.5-1.1-4c-.1-.4-.6-.7-1-.6-.5.1-.7.6-.6,1l.6,2.4-2.8-1.5c-.4-.2-.9-.1-1.2.3-.2.4-.1.9.3,1.1l2.8,1.5-2.5.7c-.5.1-.7.6-.6,1,.1.4.4.6.8.6h.2l4.2-1.1,2.7,1.5-2.7,1.5-4.2-1.1c-.5-.1-.9.1-1,.6-.1.4.1.9.6,1l2.5.6-2.8,1.5c-.4.2-.5.7-.3,1.1.2.3.4.4.7.4.1,0,.3,0,.4-.1l2.8-1.5-.7,2.4c-.1.4.1.9.6,1h.2c.4,0,.7-.2.8-.6l1.1-4,2.7-1.5v3l-3.1,2.9c-.3.3-.3.8,0,1.2.3.3.9.3,1.2,0l1.8-1.8v3.1c0,.5.4.8.9.8s.9-.4.9-.8v-3.1l1.8,1.8c.2.2.4.2.6.2s.4-.1.6-.2c.3-.3.3-.8,0-1.2l-3.1-2.9v-3l2.7,1.5,1.1,4c.1.4.4.6.8.6h.2c.5-.1.7-.6.6-1l-.7-2.4,2.8,1.5c.1.1.3.1.4.1.3,0,.6-.1.7-.4.8-.3.6-.8.2-1Z"/>
</svg>

<?xml version="1.0" encoding="UTF-8" standalone="no"?>
<!DOCTYPE svg PUBLIC "-//W3C//DTD SVG 1.1//EN" "http://www.w3.org/Graphics/SVG/1.1/DTD/svg11.dtd">
<svg width="100%" height="100%" viewBox="0 0 24 24" version="1.1" xmlns="http://www.w3.org/2000/svg" xmlns:xlink="http://www.w3.org/1999/xlink" xml:space="preserve" xmlns:serif="http://www.serif.com/" style="fill-rule:evenodd;clip-rule:evenodd;stroke-linejoin:round;stroke-miterlimit:2;">
    <path id="ic-check-cold-staking-off" d="M21.4,16.3L18.6,14.8L21.1,14.2C21.6,14.1 21.8,13.6 21.7,13.2C21.6,12.8 21.1,12.5 20.7,12.6L16.5,13.7L13.8,12.2L16.5,10.7L20.7,11.8L20.9,11.8C21.3,11.8 21.6,11.6 21.7,11.2C21.8,10.8 21.6,10.3 21.1,10.2L18.6,9.6L21.4,8.1C21.8,7.9 21.9,7.4 21.7,7C21.5,6.6 20.9,6.5 20.5,6.7L17.8,8L18.5,5.6C18.6,5.2 18.4,4.7 17.9,4.6C17.4,4.5 17,4.7 16.9,5.2L15.8,9.2L13.1,10.7L13.1,7.7L16,4.8C16.3,4.5 16.3,4 16,3.6C15.7,3.3 15.1,3.3 14.8,3.6L13,5.4L13,2.3C13,1.8 12.6,1.5 12.1,1.5C11.6,1.5 11.2,1.9 11.2,2.3L11.2,5.4L9.4,3.6C9,3.3 8.5,3.3 8.2,3.6C7.9,3.9 7.9,4.4 8.2,4.8L11.3,7.7L11.3,10.7L8.5,9.2L7.4,5.2C7.3,4.8 6.8,4.5 6.4,4.6C5.9,4.7 5.7,5.2 5.8,5.6L6.4,8L3.6,6.5C3.2,6.3 2.7,6.4 2.4,6.8C2.2,7.2 2.3,7.7 2.7,7.9L5.5,9.4L3,10.1C2.5,10.2 2.3,10.7 2.4,11.1C2.5,11.5 2.8,11.7 3.2,11.7L3.4,11.7L7.6,10.6L10.3,12.1L7.6,13.6L3.4,12.5C2.9,12.4 2.5,12.6 2.4,13.1C2.3,13.5 2.5,14 3,14.1L5.5,14.7L2.7,16.2C2.3,16.4 2.2,16.9 2.4,17.3C2.6,17.6 2.8,17.7 3.1,17.7C3.2,17.7 3.4,17.7 3.5,17.6L6.3,16.1L5.6,18.5C5.5,18.9 5.7,19.4 6.2,19.5L6.4,19.5C6.8,19.5 7.1,19.3 7.2,18.9L8.3,14.9L11,13.4L11,16.4L7.9,19.3C7.6,19.6 7.6,20.1 7.9,20.5C8.2,20.8 8.8,20.8 9.1,20.5L10.9,18.7L10.9,21.8C10.9,22.3 11.3,22.6 11.8,22.6C12.3,22.6 12.7,22.2 12.7,21.8L12.7,18.7L14.5,20.5C14.7,20.7 14.9,20.7 15.1,20.7C15.3,20.7 15.5,20.6 15.7,20.5C16,20.2 16,19.7 15.7,19.3L12.6,16.4L12.6,13.4L15.3,14.9L16.4,18.9C16.5,19.3 16.8,19.5 17.2,19.5L17.4,19.5C17.9,19.4 18.1,18.9 18,18.5L17.3,16.1L20.1,17.6C20.2,17.7 20.4,17.7 20.5,17.7C20.8,17.7 21.1,17.6 21.2,17.3C22,17 21.8,16.5 21.4,16.3Z" style="fill:rgb(255,239,0);fill-rule:nonzero;"/>
</svg>
